X:740
T:The Sound of Sleet
C:Glayva
R:reel
H:
Z:
M:4/4
K:D
"D"A2 AB "G"Bd d2|"A"e2 ed "D"ef f2|A2 AB "G"Bdde|"D"fded"G"B2 "A"A2|
"A"A2 AB "D"Bd d2|"A"e2 ed "D"ef f2|"A"A2 AB "G"Bdde|"Bm"fded"G"B2 "A"A2||
||"D"f2 fe fa a2|"A"e2 de "G"fdBA|"D"f2 fe faae|"G"fded "A"B2 A2|
"Bm"f2 fe fa a2|"Em"e2 de "D"fdBA|"Em"e2 ed "Bm"effa|"G"fded "A"B2 A2||
||"D"A2 AG "G"B2 BA|"Bm"d2 df "A"edef|"D"A2 AG "G"B2 BA|"Bm"fded "G"B2 "A"A2|
"A"A2 AG "Bm"B2 BA|"G" d2 df "Em"edef|"A"A2 AG "Em"B2 BA|"G"fded "A"B2 A2||
||"D"a2 fa af a2|"A"e2 de "Bm"fdBA|"D"a2 fa af a2|"G"fded "Bm"B2 "A"A2|
"D"a2 fa af a2|"Em"e2 de "G"fdBA|"Bm"d2 df "A"edef|"D"fded "Em"B2 "A"A2||
